X: 31650
T: Parliamentary Courtesan, The
R: reel
M: 4/4
K: Gmajor
d ef|:"G"g>fge "D"dcBA|"G"GABc "D"de d2|"G"g>fge "Em" dBGB|edcB "D"A4|
"G"g>fge dBGF|"Em"EE/F/GA BeB2|"G"d>gdB "D"cAFc|1 "D"AFdA "G"G2 (3def:|2 "D"AFdA "G"G2- GF|
|:"Em"EE/E/EF GG/G/GA|B2 Bd edBA|EE/E/EF GG/G/GA|BAGA "B" F2AF|
"Em" EE/E/EF GG/G/GA|B2 Bd e2ee|"G"d>gdB "D"cAFc|1 "D"AFdA "G"G2-GF:|2 "D"AFdA"G"G2 (3def||

